assets/svg/action_profile_blockuser.svg

<svg width="81" height="80" viewBox="0 0 81 80" fill="none" xmlns="http://www.w3.org/2000/svg">
<path d="M54.1781 25.6859H53.7078L53.7141 14.7141C53.7156 11.3062 52.3906 8.10156 49.9812 5.69062C47.5719 3.28125 44.3688 1.95312 40.9609 1.95312H35.7703C32.9625 1.95312 30.2219 2.74219 27.8438 4.23438L25.8859 5.46406C25.4096 5.76376 24.8581 5.92248 24.2953 5.92188C21.2203 5.92188 18.7172 8.42344 18.7172 11.5V25.6859H18.2547C17.0406 25.6859 15.9109 26.2313 15.1547 27.1813C14.3984 28.1313 14.1234 29.3563 14.3969 30.5391L14.825 32.3891C15.2437 34.1937 16.8297 35.4547 18.6812 35.4547H19.1797C19.7547 41.0422 22.3891 46.1797 26.4688 49.9031L26.5312 50.4609C26.6812 51.8172 26.5031 53.2078 26.0141 54.4812C25.9614 54.6179 25.8808 54.7421 25.7775 54.8459C25.6742 54.9498 25.5504 55.031 25.4141 55.0844L12.7344 60.0391C9.69219 61.2281 7.11094 63.2812 5.26875 65.9797C3.42656 68.6766 2.45312 71.8297 2.45312 75.0953V77.5C2.45312 77.8016 2.69844 78.0469 3 78.0469C3.30156 78.0469 3.54688 77.8016 3.54688 77.5V75.0953C3.54688 72.05 4.45469 69.1109 6.17188 66.5969C7.88906 64.0813 10.2969 62.1672 13.1328 61.0594L22.4172 57.4313C23.8094 59.9406 25.8078 62 28.225 63.4062C30.6266 64.8047 33.3906 65.5438 36.2156 65.5438C39.0422 65.5438 41.8047 64.8047 44.2062 63.4062C46.6234 62 48.6219 59.9391 50.0141 57.4313L51.5641 58.0359C51.6297 58.0609 51.6969 58.0734 51.7625 58.0734C51.8899 58.0733 52.0133 58.0287 52.1113 57.9473C52.2093 57.8659 52.2759 57.7528 52.2994 57.6275C52.3229 57.5023 52.302 57.3728 52.2402 57.2614C52.1784 57.1499 52.0796 57.0636 51.9609 57.0172L47.0156 55.0844C46.8794 55.0307 46.7557 54.9494 46.6525 54.8456C46.5492 54.7418 46.4686 54.6178 46.4156 54.4812C45.9254 53.2015 45.748 51.8231 45.8984 50.4609L45.9609 49.9016C50.0375 46.1797 52.6703 41.0422 53.2453 35.4547H53.7484C55.6016 35.4547 57.1875 34.1937 57.6047 32.3891L58.0328 30.5391C58.3062 29.3563 58.0312 28.1328 57.275 27.1813C56.5187 26.2297 55.3922 25.6859 54.1781 25.6859ZM19.8109 11.5C19.8109 9.02812 21.8219 7.01562 24.2953 7.01562C25.0637 7.01606 25.8166 6.79941 26.4672 6.39062L28.425 5.16094C30.6256 3.77883 33.1717 3.04604 35.7703 3.04688H40.9609C44.0766 3.04688 47.0063 4.26094 49.2078 6.46406C51.4109 8.66875 52.6219 11.5984 52.6203 14.7141L52.6125 26.2203L52.5672 27.2047L50.8547 26.2234C50.6916 26.1298 50.5561 25.9949 50.4617 25.8322C50.3673 25.6696 50.3175 25.4849 50.3172 25.2969V19.4906C50.3172 17.0734 48.3516 15.1078 45.9344 15.1078H26.4953C24.0781 15.1078 22.1125 17.0734 22.1125 19.4906V25.2969C22.1125 25.6781 21.9062 26.0344 21.575 26.2234L19.8562 27.2078L19.8109 26.2188V11.5ZM18.6828 34.3609C17.3422 34.3609 16.1938 33.4484 15.8906 32.1422L15.4625 30.2922C15.2641 29.4359 15.4641 28.55 16.0109 27.8625C16.5578 27.175 17.375 26.7797 18.2547 26.7797H18.7422L19.0844 34.1828C19.0875 34.2422 19.0922 34.3 19.0953 34.3594H18.6828V34.3609ZM23.4453 57.0281L25.3969 56.2656C25.8656 56.9656 26.3922 57.6109 26.9703 58.1969C26.3734 58.9375 26.2031 59.9062 26.4453 60.775C25.275 59.7234 24.2594 58.4656 23.4453 57.0281ZM45.3953 54.8734C45.5312 55.2266 45.7578 55.5359 46.0469 55.7703C43.8203 59.0219 40.1844 60.9469 36.2141 60.9469C32.2438 60.9469 28.6094 59.0219 26.3813 55.7703C26.6703 55.5359 26.8969 55.2266 27.0328 54.8734C27.5156 53.6187 27.7297 52.2625 27.6625 50.9203C28.8281 51.8453 30.0938 52.6625 31.4469 53.3516C32.9391 54.1125 34.575 54.4922 36.2125 54.4922C37.85 54.4922 39.4859 54.1125 40.9781 53.3516C42.3313 52.6625 43.5969 51.8453 44.7625 50.9203C44.6984 52.2625 44.9141 53.6187 45.3953 54.8734ZM40.4844 52.3781C37.8109 53.7406 34.6203 53.7406 31.9422 52.375C25.0422 48.8594 20.5344 41.8688 20.1766 34.1328L19.9141 28.4375L22.1187 27.1734C22.7891 26.7891 23.2063 26.0703 23.2063 25.2984V19.4922C23.2063 17.6781 24.6812 16.2031 26.4953 16.2031H45.9375C47.7516 16.2031 49.2266 17.6781 49.2266 19.4922V25.2984C49.2266 26.0719 49.6438 26.7891 50.3141 27.1734L52.5141 28.4344L52.2531 34.1297C51.8953 41.8672 47.3875 48.8594 40.4844 52.3781ZM56.9688 30.2922L56.5406 32.1422C56.2375 33.4484 55.0906 34.3609 53.7484 34.3609H53.3312C53.3344 34.3 53.3406 34.2406 53.3422 34.1797L53.6812 26.7812H54.1766C55.0547 26.7812 55.8734 27.1766 56.4203 27.8641C56.9672 28.5516 57.1672 29.4359 56.9688 30.2922Z" fill="#9A9A9A"/>
<path fill-rule="evenodd" clip-rule="evenodd" d="M10.7074 69H37.2936C37.96 69 38.5 69.7775 38.5 70.7352V78.2648C38.5 79.2225 37.959 80 37.2926 80H10.7074C10.041 80 9.5 79.2225 9.5 78.2648V70.7352C9.5 69.7775 10.041 69 10.7074 69ZM13.5 72C13.2239 72 13 72.2239 13 72.5C13 72.7761 13.2239 73 13.5 73H32.5C32.7761 73 33 72.7761 33 72.5C33 72.2239 32.7761 72 32.5 72H13.5ZM13.5 76C13.2239 76 13 76.2239 13 76.5C13 76.7761 13.2239 77 13.5 77H28.5C28.7761 77 29 76.7761 29 76.5C29 76.2239 28.7761 76 28.5 76H13.5Z" fill="#E1EAF8"/>
<path d="M65.5 55C58.8719 55 53.5 60.3732 53.5 67C53.5 73.6281 58.8732 79 65.5 79C72.1281 79 77.5 73.6268 77.5 67C77.5 60.3719 72.1281 55 65.5 55Z" fill="#FD4E4E"/>
<path d="M59.4099 72.2224C59.1752 72.4564 59.1747 72.8363 59.4087 73.0709C59.6427 73.3055 60.0226 73.3061 60.2572 73.0721L59.4099 72.2224ZM70.7397 60.9248L59.4099 72.2224L60.2572 73.0721L71.587 61.7745L70.7397 60.9248ZM72.9 67C72.9 71.0869 69.5869 74.4 65.5 74.4V75.6C70.2496 75.6 74.1 71.7496 74.1 67H72.9ZM65.5 74.4C61.4131 74.4 58.1 71.0869 58.1 67H56.9C56.9 71.7496 60.7504 75.6 65.5 75.6V74.4ZM58.1 67C58.1 62.9131 61.4131 59.6 65.5 59.6V58.4C60.7504 58.4 56.9 62.2504 56.9 67H58.1ZM65.5 59.6C69.5869 59.6 72.9 62.9131 72.9 67H74.1C74.1 62.2504 70.2496 58.4 65.5 58.4V59.6Z" fill="white"/>
</svg>

<svg xmlns="http://www.w3.org/2000/svg" width="81" height="80" fill="none"><path fill="#9A9A9A" d="M54.178 25.686h-.47l.006-10.972a12.67 12.67 0 0 0-3.733-9.023 12.67 12.67 0 0 0-9.02-3.738h-5.19c-2.809 0-5.55.79-7.927 2.281l-1.958 1.23a3 3 0 0 1-1.59.458 5.584 5.584 0 0 0-5.579 5.578v14.186h-.462a3.94 3.94 0 0 0-3.1 1.495 3.94 3.94 0 0 0-.758 3.358l.428 1.85a3.94 3.94 0 0 0 3.856 3.066h.499a22.74 22.74 0 0 0 7.289 14.448l.062.558a8.6 8.6 0 0 1-.517 4.02 1.06 1.06 0 0 1-.6.603l-12.68 4.955a16.1 16.1 0 0 0-7.465 5.94 16.1 16.1 0 0 0-2.816 9.116V77.5a.547.547 0 0 0 1.094 0v-2.405c0-3.045.908-5.984 2.625-8.498a15 15 0 0 1 6.96-5.538l9.285-3.628c1.392 2.51 3.39 4.569 5.808 5.975a15.9 15.9 0 0 0 7.99 2.138c2.827 0 5.59-.74 7.991-2.138 2.417-1.406 4.416-3.467 5.808-5.975l1.55.605a.547.547 0 0 0 .397-1.019l-4.945-1.933a1.06 1.06 0 0 1-.6-.603 8.6 8.6 0 0 1-.518-4.02l.063-.56a22.74 22.74 0 0 0 7.284-14.446h.503a3.94 3.94 0 0 0 3.857-3.066l.428-1.85a3.94 3.94 0 0 0-.758-3.358 3.93 3.93 0 0 0-3.097-1.495M19.811 11.5a4.49 4.49 0 0 1 4.484-4.484c.769 0 1.522-.217 2.172-.625l1.958-1.23a13.8 13.8 0 0 1 7.345-2.114h5.19c3.117 0 6.046 1.214 8.248 3.417a11.59 11.59 0 0 1 3.412 8.25l-.008 11.506-.045.985-1.712-.982a1.07 1.07 0 0 1-.538-.926V19.49a4.387 4.387 0 0 0-4.383-4.383H26.495a4.387 4.387 0 0 0-4.382 4.383v5.806c0 .381-.207.737-.538.926l-1.719.985-.045-.99zm-1.128 22.86a2.854 2.854 0 0 1-2.792-2.218l-.428-1.85a2.85 2.85 0 0 1 .548-2.43 2.85 2.85 0 0 1 2.244-1.082h.487l.342 7.403.011.176zm4.762 22.668 1.952-.762q.705 1.051 1.573 1.93a2.88 2.88 0 0 0-.525 2.579 14.9 14.9 0 0 1-3-3.747m21.95-2.155c.136.354.363.663.652.897a11.85 11.85 0 0 1-9.833 5.177 11.85 11.85 0 0 1-9.833-5.177c.29-.234.516-.543.652-.897a9.7 9.7 0 0 0 .63-3.953 22.6 22.6 0 0 0 3.784 2.432c1.492.76 3.128 1.14 4.765 1.14 1.638 0 3.274-.38 4.766-1.14a22.6 22.6 0 0 0 3.785-2.432 9.8 9.8 0 0 0 .632 3.953m-4.91-2.495a9.43 9.43 0 0 1-8.543-.003 21.64 21.64 0 0 1-11.765-18.242l-.263-5.696 2.205-1.264a2.17 2.17 0 0 0 1.087-1.875v-5.806a3.29 3.29 0 0 1 3.29-3.289h19.442a3.29 3.29 0 0 1 3.289 3.29v5.805c0 .774.417 1.491 1.087 1.875l2.2 1.261-.26 5.696a21.64 21.64 0 0 1-11.77 18.248m16.484-22.086-.428 1.85a2.85 2.85 0 0 1-2.793 2.219h-.417c.003-.061.01-.12.011-.181l.34-7.399h.495c.878 0 1.696.396 2.243 1.083.547.688.747 1.572.549 2.428"/><path fill="#E1EAF8" fill-rule="evenodd" d="M10.707 69h26.587c.666 0 1.206.778 1.206 1.735v7.53c0 .957-.541 1.735-1.207 1.735H10.707c-.666 0-1.207-.778-1.207-1.735v-7.53c0-.957.541-1.735 1.207-1.735m2.793 3a.5.5 0 0 0 0 1h19a.5.5 0 0 0 0-1zm0 4a.5.5 0 0 0 0 1h15a.5.5 0 0 0 0-1z" clip-rule="evenodd"/><path fill="#FD4E4E" d="M65.5 55c-6.628 0-12 5.373-12 12 0 6.628 5.373 12 12 12 6.628 0 12-5.373 12-12 0-6.628-5.372-12-12-12"/><path fill="#fff" d="M59.41 72.222a.6.6 0 1 0 .847.85zm11.33-11.297L59.41 72.222l.847.85 11.33-11.297zM72.9 67a7.4 7.4 0 0 1-7.4 7.4v1.2a8.6 8.6 0 0 0 8.6-8.6zm-7.4 7.4a7.4 7.4 0 0 1-7.4-7.4h-1.2a8.6 8.6 0 0 0 8.6 8.6zM58.1 67a7.4 7.4 0 0 1 7.4-7.4v-1.2a8.6 8.6 0 0 0-8.6 8.6zm7.4-7.4a7.4 7.4 0 0 1 7.4 7.4h1.2a8.6 8.6 0 0 0-8.6-8.6z"/></svg>
